X: 1147
T: Dever the Dancer   #2
R: slipjig
%S: s:2 b:10(5+5)
O: Gillan
B: O'Neill's 1850 Music of Ireland #1147
Z: Stephen Foy (shf@access.digex.net)
%: abc 1.6
M: 9/8
K: D
"^A"|: BEE BEE G2A |1,3 BEE BEE FGA :|2,4 Bcd ABG FED "^B":: ded dAF G2A |
| ded def gfe |1 ded dAF G2A | Bcd ABG FED :|2 afd ece d2d | Add ABG FED |]
